!!!OTL: VIEL TAUSEND STERNE
!!!ARE: Europa, Mitteleuropa, Deutschland
!!!SCT: F0973
!!!YEM: Copyright 1995, estate of Helmut Schaffrath.
**kern
*ICvox
*Ivox
*M6/8
*k[]
*C:
{8G
=1
4e
8e
4d
8d
=2
4.c
4G}
{8G
=3
4c
8c
8.d
16c
8d
=4
2e
8r}
{8G
=5
4e
8e
4d
8d
=6
4.c
8f
8e}
{8d
=7
4c
8c
8c
8d
8B
=8
2c
8r}
{8G
=9
4d
8B
4d
8B
=10
4e
8d
4c}
{8c
=11
4f
8e
4d
8c
=12
2B
8r}
{8G
=13
4e
8e
4d
8d
=14
4.c
8f
8e}
{8d
=15
4c
8c
8c
8d
8B
=16
2c
8r}
{8G
=17
4d
8B
4d
8B
=18
4e
8d
4c}
{8c
=19
4f
8e
4d
8c
=20
2B
8r}
{8G
=21
4e
8e
4d
8d
=22
4.c
8f
8e}
{8d
=23
4c
8c
8c
8d
8B
=24
2c
8r}
{8G
=25
8G
8A
8B
8c
8d
8e
=26
4.f
4e}
{16f
16d
=27
4c
8c
8c
8d
8B
=28
2c
8r}
{8G
=29
8G
8A
8B
8c
8d
8e
=30
4.f
8f
8g}
{8a
=31
4g
8c
4e
8d
=32
2c
8r}
==
!!!AGN: Natur - Lied, Sterne
!!!ONB: ESAC (Essen Associative Code) Database: FINK
!!!AMT: compound duple
!!!AIN: vox
!!!EED: Helmut Schaffrath
!!!EEV: 1.0
*-
